svgs/light/h3.svg

<svg xmlns="http://www.w3.org/2000/svg" viewBox="0 0 640 512"><!--! Font Awesome Pro 6.3.0 by @fontawesome - https://fontawesome.com License - https://fontawesome.com/license (Commercial License) Copyright 2023 Fonticons, Inc. --><path d="M531.9 231.1h-62.84l146.5-139.5c4.734-4.529 6.234-11.46 3.812-17.52C616.9 67.97 611.1 64 604.5 64H384c-8.844 0-16 7.152-16 15.99s7.156 15.99 16 15.99h180.5l-146.5 139.5c-4.734 4.529-6.234 11.46-3.812 17.52c2.438 6.09 8.312 10.06 14.86 10.06h102.8C573.9 263.1 608 297.4 608 339.5s-34.13 76.33-76.06 76.33h-82.92c-22.64 0-42.67-14.49-49.83-36.04c-2.781-8.37-11.84-12.93-20.23-10.12c-8.391 2.78-12.92 11.84-10.14 20.24c11.53 34.64 43.75 57.9 80.2 57.9h82.92C591.5 447.8 640 399.2 640 339.5C640 279.7 591.5 231.1 531.9 231.1zM304 64.22c-8.844 0-16 7.152-16 15.99v159.9H32V80.21c0-8.839-7.156-15.99-16-15.99S0 71.37 0 80.21v351.8C0 440.8 7.156 448 16 448S32 440.8 32 432V272.1h256v159.9C288 440.8 295.2 448 304 448s16-7.152 16-15.99V80.21C320 71.37 312.8 64.22 304 64.22z"/></svg>

<svg xmlns="http://www.w3.org/2000/svg" viewBox="0 0 640 512"><!-- Font Awesome Pro 6.0.0-alpha2 by @fontawesome - https://fontawesome.com License - https://fontawesome.com/license (Commercial License) --><path d="M531.938 231.124H469.094L615.562 91.578C620.297 87.049 621.797 80.116 619.375 74.057C616.938 67.966 611.062 64 604.516 64H384C375.156 64 368 71.152 368 79.991S375.156 95.982 384 95.982H564.547L418.078 235.527C413.344 240.056 411.844 246.99 414.266 253.049C416.703 259.139 422.578 263.105 429.125 263.105H531.938C573.875 263.105 608 297.367 608 339.468S573.875 415.8 531.938 415.8H449.016C426.375 415.8 406.344 401.308 399.188 379.758C396.406 371.387 387.344 366.827 378.953 369.638C370.563 372.418 366.031 381.475 368.813 389.877C380.344 424.513 412.563 447.781 449.016 447.781H531.938C591.531 447.781 640 399.184 640 339.468C640 279.721 591.531 231.124 531.938 231.124ZM304 64.219C295.156 64.219 288 71.371 288 80.21V240.118H32V80.21C32 71.371 24.844 64.219 16 64.219S0 71.371 0 80.21V432.009C0 440.848 7.156 448 16 448S32 440.848 32 432.009V272.1H288V432.009C288 440.848 295.156 448 304 448S320 440.848 320 432.009V80.21C320 71.371 312.844 64.219 304 64.219Z"/></svg>
